packages/ndla-icons/svg/contentType/subject-material.svg

<?xml version="1.0" encoding="UTF-8"?>
<svg width="24px" height="24px" viewBox="0 0 24 24" version="1.1" xmlns="http://www.w3.org/2000/svg" xmlns:xlink="http://www.w3.org/1999/xlink" data-license="Apache License 2.0" data-source="Material Design">
    <path d="M19 5V19H5V5H19ZM19 3H5C3.9 3 3 3.9 3 5V19C3 20.1 3.9 21 5 21H19C20.1 21 21 20.1 21 19V5C21 3.9 20.1 3 19 3Z" fill="currentColor"/>
    <path d="M14 17H7V15H14V17ZM17 13H7V11H17V13ZM17 9H7V7H17V9Z" fill="currentColor"/>
</svg>

<svg xmlns="http://www.w3.org/2000/svg" data-license="Apache License 2.0" data-source="Material Design" viewBox="0 0 24 24">
  <path fill="currentColor" d="M19 5v14H5V5h14Zm0-2H5a2 2 0 0 0-2 2v14c0 1.1.9 2 2 2h14a2 2 0 0 0 2-2V5a2 2 0 0 0-2-2Z"/>
  <path fill="currentColor" d="M14 17H7v-2h7v2Zm3-4H7v-2h10v2Zm0-4H7V7h10v2Z"/>
</svg>
